%
G90 G21 M3 S100 F250
(AXIS,XY_Z_POS,0)
(AXIS,UV_Z_POS,850.000)
(modelname carkytest)
(wingspan 510.0)
(rootchord 310.0)
(tipchord 200.0)
(rootfile .\coord\mh60.dat)
(tipfile .\coord\mh60.dat)
(foamchord 500.0)
(foamthickness 50.0)
(trail 3.0)
(sweep 5.0)
(washout 3.0)
(gantry 850.0)
(feedrate 250.0)
(xy left)
(unit MM)
(NOTE 0,0 is wire on table at front foam corner)
(Generated by wing.py. David the Swarfer, 2017)
(from ini file root mh60.dat tip mh60.dat offset 175.00 )
(minimum material chord is 346.7 with wastage of 35.000 at trailing edge)
(root gantry thickness = 35.1mm)
(tip gantry thickness = 17.9mm)
(above sizes are for gantry travel, actual wing will be thinner)
(foam block 510.000'wingspan' x 500.000 x 50.000mm)
(XY gantry left)
(trailing edge will be AT LEAST 19.6mm above bottom of panel)
G21
G90 G49 G64 P0.25
(seek to start height)
G00 X-5.000 Y22.558 U-5.000 V22.558 F250.0
(seek to trailing edge)
G01 X0.000 Y22.558 U175.000 V22.558
(do profile)
G01 X0.000 Y22.558 U175.000 V22.558
G01 X1.158 Y22.443 U175.544 V22.477
G01 X4.656 Y22.138 U177.189 V22.255
G01 X10.455 Y21.750 U179.921 V21.946
G01 X18.401 Y21.334 U183.669 V21.576
G01 X28.330 Y20.862 U188.360 V21.134
G01 X40.033 Y21.953 U193.895 V20.621
G01 X53.245 Y23.537 U200.150 V20.117
G01 X67.707 Y25.479 U207.003 V20.674
G01 X83.172 Y27.704 U214.334 V21.340
G01 X99.393 Y30.107 U222.025 V22.070
G01 X116.144 Y32.564 U229.967 V22.814
G01 X133.238 Y34.929 U238.069 V23.504
G01 X150.533 Y37.085 U246.259 V24.092
G01 X167.898 Y38.950 U254.475 V24.542
G01 X185.207 Y40.486 U262.657 V24.838
G01 X202.311 Y41.668 U270.734 V24.972
G01 X219.048 Y42.490 U278.629 V24.946
G01 X235.255 Y42.926 U286.266 V24.752
G01 X250.772 Y42.961 U293.567 V24.385
G01 X265.457 Y42.576 U300.467 V23.842
G01 X279.188 Y41.762 U306.908 V23.120
G01 X291.862 Y40.524 U312.841 V22.226
G01 X303.382 Y38.888 U318.220 V21.172
G01 X313.661 Y36.891 U323.007 V19.979
G01 X322.618 Y34.572 U327.165 V18.667
G01 X330.200 Y31.972 U330.668 V17.256
G01 X336.388 Y29.157 U333.510 V15.779
G01 X341.158 Y26.245 U335.683 V14.292
G01 X344.500 Y23.364 U337.184 V12.854
G01 X346.369 Y20.719 U337.998 V11.563
G01 X346.448 Y18.628 U337.984 V10.578
G01 X344.469 Y16.847 U337.009 V9.788
G01 X340.565 Y15.027 U335.127 V9.028
G01 X334.925 Y13.286 U332.430 V8.348
G01 X327.635 Y11.706 U328.961 V7.784
G01 X318.774 Y10.347 U324.759 V7.363
G01 X308.409 Y9.268 U319.855 V7.112
G01 X296.605 Y8.495 U314.282 V7.039
G01 X283.445 Y8.038 U308.079 V7.148
G01 X269.027 Y7.875 U301.291 V7.427
G01 X253.483 Y7.972 U293.980 V7.856
G01 X236.967 Y8.294 U286.217 V8.415
G01 X219.658 Y8.807 U278.086 V9.083
G01 X201.739 Y9.476 U269.671 V9.840
G01 X183.407 Y10.253 U261.065 V10.657
G01 X164.882 Y11.095 U252.369 V11.510
G01 X146.383 Y11.972 U243.688 V12.379
G01 X128.142 Y12.856 U235.127 V13.245
G01 X110.379 Y13.720 U226.790 V14.089
G01 X93.316 Y14.552 U218.782 V14.901
G01 X77.158 Y15.339 U211.199 V15.670
G01 X62.105 Y16.070 U204.135 V16.385
G01 X48.346 Y16.736 U197.678 V17.038
G01 X36.050 Y17.332 U191.907 V17.621
G01 X25.373 Y17.862 U186.896 V18.134
G01 X16.449 Y18.334 U182.709 V18.576
G01 X9.395 Y18.750 U179.400 V18.946
G01 X4.274 Y19.138 U177.001 V19.255
G01 X1.102 Y19.443 U175.516 V19.477
G01 X0.000 Y19.558 U175.000 V19.558
(close trailing edge)
G01 X0.000 Y22.558 U175.000 V22.558
(retract out of foam)
G01 X-5.000 Y22.558 U-5.000 V22.558
G4 P0.075
G00 X-10.000 Y10.000 U-10.000 V10.000
M5
M30
%
